X:165
T:Reel du goglu
Z:robin.beech@mcgill.ca
M:4/4
L:1/8
K:D
fg | afge dfed | cdec ABAG | FAdf gfed | cdec A2fg|
     afge dfed | cdec ABAG | FAdf gecd | edde d2 ::
cd | eAAA Adfd | eAAA Adfd | gfeg fedf | edcB AGFE |
     DFAc d2cB | Acee a2aa | bgef gecd  |edde  d2:|

